X:1
T:The Knotted Cord
L:1/8
M:4/4
I:linebreak $
K:G
V:1 treble 
V:1
 A3 B AE E2 | A2 Bd edBA | G3 A GEDE | G2 BG dGBG | A3 B AE E2 | A2 Bd edBA |$ GABe eg{a}ge | %7
 dBGA BA A2 :: ea a2 ea a2 | eaab aged | eg g2 eg g2 |$ egga gedg | ea a2 ea a2 | eaab aged | %14
 BABd eg{a}ga | dBGA BA A2 :| %16
